src/assets/outline/Forbidden.svg

<svg width="24" height="24" viewBox="0 0 24 24"  xmlns="http://www.w3.org/2000/svg">
<path d="M14.9 22.75H9.10001C8.21001 22.75 7.07 22.28 6.45 21.65L2.35001 17.55C1.72001 16.92 1.25 15.78 1.25 14.9V9.10001C1.25 8.21001 1.72001 7.07001 2.35001 6.45001L6.45 2.35001C7.08 1.72001 8.22001 1.25 9.10001 1.25H14.9C15.79 1.25 16.93 1.72001 17.55 2.35001L21.65 6.45001C22.28 7.08001 22.75 8.22001 22.75 9.10001V14.9C22.75 15.79 22.28 16.93 21.65 17.55L17.55 21.65C16.92 22.28 15.79 22.75 14.9 22.75ZM9.10001 2.75C8.61001 2.75 7.84999 3.06 7.50999 3.41L3.41 7.51001C3.07 7.86001 2.75 8.61001 2.75 9.10001V14.9C2.75 15.39 3.06 16.15 3.41 16.49L7.50999 20.59C7.85999 20.93 8.61001 21.25 9.10001 21.25H14.9C15.39 21.25 16.15 20.94 16.49 20.59L20.59 16.49C20.93 16.14 21.25 15.39 21.25 14.9V9.10001C21.25 8.61001 20.94 7.85001 20.59 7.51001L16.49 3.41C16.14 3.07 15.39 2.75 14.9 2.75H9.10001Z" />
<path d="M4.93988 19.8299C4.74988 19.8299 4.55988 19.7599 4.40988 19.6099C4.11988 19.3199 4.11988 18.8399 4.40988 18.5499L18.5499 4.40988C18.8399 4.11988 19.3199 4.11988 19.6099 4.40988C19.8999 4.69988 19.8999 5.17988 19.6099 5.46988L5.46988 19.6099C5.31988 19.7599 5.12988 19.8299 4.93988 19.8299Z" />
</svg>

<?xml version="1.0" encoding="UTF-8"?>
<svg width="24" height="24" viewBox="0 0 24 24" xmlns="http://www.w3.org/2000/svg">
 <path d="m14.9 22.75h-5.8c-0.89 0-2.03-0.47-2.65-1.1l-4.1-4.1c-0.63-0.63-1.1-1.77-1.1-2.65v-5.8c0-0.89 0.47001-2.03 1.1-2.65l4.1-4.1c0.63-0.63 1.77-1.1 2.65-1.1h5.8c0.89 0 2.03 0.47001 2.65 1.1l4.1 4.1c0.63 0.63 1.1 1.77 1.1 2.65v5.8c0 0.89-0.47 2.03-1.1 2.65l-4.1 4.1c-0.63 0.63-1.76 1.1-2.65 1.1zm-5.8-20c-0.49 0-1.25 0.31-1.59 0.66l-4.1 4.1c-0.34 0.35-0.66 1.1-0.66 1.59v5.8c0 0.49 0.31 1.25 0.66 1.59l4.1 4.1c0.35 0.34 1.1 0.66 1.59 0.66h5.8c0.49 0 1.25-0.31 1.59-0.66l4.1-4.1c0.34-0.35 0.66-1.1 0.66-1.59v-5.8c0-0.49-0.31-1.25-0.66-1.59l-4.1-4.1c-0.35-0.34-1.1-0.66-1.59-0.66h-5.8z"/>
 <path d="m4.9399 19.83c-0.19 0-0.38-0.07-0.53-0.22-0.29-0.29-0.29-0.77 0-1.06l14.14-14.14c0.29-0.29 0.77-0.29 1.06 0s0.29 0.77 0 1.06l-14.14 14.14c-0.15 0.15-0.34 0.22-0.53 0.22z"/>
</svg>
